X: 1
T: Pointe au Pic
Z: John Chambers <jc:trillian.mit.edu>
M: C|
L: 1/8
K: C
"A"[|]\
geg \
| "C"d2c2 B2A2 | G4 zgeg  | d2c2  B2A2 | "G7"B4 zgeg \
|    d2c2 B2A2 | B4 zg^fg | ag^fg agec |  "C"G4 zgeg |
| "C"d2c2     B2A2 |    G4        zgeg | "C7"d2c2     B2c2 | "F"A6 AB \
|    c2Bc "D7"d2cd | "C"e2^de "A7"a2e2 | "Dm"g2f2 "G7"fGAB | "C"c4 z2B2 ||
"B"\
|| "Am"A3B cBcd | ea2e a2ea | ea2e a2ea | ea2e "D7"a4 \
|   "G"G3A BGBd | g3 g2 ABd | g3 g2 ABd | g^fga g=fed |
|  "Am"A3B     cBcd   |    ea2e      a2ea |     ea2e     a2ea | ea2e a2b2 \
|   "F"c'4 "D7"c'ef^f | "C"g^fga "A7"gecd | "D7"egec "G7"dfdB | "C"c4 z |]
%%sep 2 1 500
